X:1
T:Inception- Time
T:Inception- Time
T:Hans Zimmer Arranged by Jane Jaikumar
T:Hans Zimmer
T:Hans Zimmer
T:Hans Zimmer
T:Hans Zimmer
C:Jane
Z:Hans Zimmer
%%score [ ( 1 2 ) ( 3 4 ) ( 5 6 ) 7 ]
L:1/8
Q:1/4=67
M:4/4
K:G
V:1 treble nm="Soprano" snm="S."
V:2 treble 
V:3 treble nm="Alto" snm="A."
V:4 treble 
V:5 treble-8 nm="Tenor" snm="T."
V:6 treble-8 
V:7 bass nm="Bass" snm="B."
V:1
"^(Slow, with a feeling of constant movement)""_(Ah)" C8 | G8 | B,8 | F8 | C8 | B8 | B,8 | F8 :| %8
w: ||||||||
!p! C8 | G8 |"_cresc." D8 | F8 | C8 |!mp! B8 |"_cresc." B,8 | F4 E2 A,2 |: %16
w: ||||||||
 A/B/B A/B/B A/B/B A/B/B | A/B/B A/B/B A/B/B A/B/B | A/B/B A/B/B A/B/B A/B/B | %19
w: Pa- da- dum- * * * * * * * * *|||
 G/A/A G/A/A G/A/A G/A/A | A/B/B A/B/B A/B/B A/B/B | A/B/B A/B/B A/B/B A/B/B | %22
w: |||
"_cresc." A/B/B A/B/B A/B/B A/B/B | G/A/A G/A/A G/A/A G/A/A :|!f! A/B/B A/B/B A/B/B A/B/B | %25
w: |||
 A/B/B A/B/B A/B/B A/B/B | A/B/B A/B/B A/B/B A/B/B |"_cresc." G/A/A G/A/A G/A/A G/A/A | %28
w: |||
 A/B/B A/B/B A/B/B A/B/B | A/B/B A/B/B A/B/B A/B/B | A/B/B A/B/B A/B/B A/B/B | %31
w: |||
"_dim." G/A/A G/A/A G/A/A G/A/A | z8 | z8 | z8 | z8 | z8 | z8 | z8 | z8 | z8 | z8 | z8 | z8 | %44
w: |||||||||||||
 z2 A2 B2 A2 | G8 | z2 F2 G2 A2 | F8 | c8 |"_dim." g8 | B8 | f8 | c8 |!pp! (B8 | B8) | f8 |] %56
w: (Ah) * *||||||||||||
V:2
 x8 | x8 | x8 | x8 | x8 | x8 | x8 | x8 :| x8 | x8 | x8 | x8 | x8 | E8 | x8 | x8 |: x8 | x8 | x8 | %19
w: |||||||||||||||||||
w: |||||||||||||||||||
 x8 | x8 | x8 | x8 | x8 :| c8 | g8 | B8 | f4 e2 f2 | c8 | b8 | B8 | f8 | x8 | x8 | x8 | x8 | x8 | %37
w: |||||.|||||||||||||
w: |||||(Ah)|||||||||||||
 x8 | x8 | x8 | x8 | x8 | x8 | x8 | x8 | x8 | x8 | A8 | A8 | e8 | G8 | d8 | x8 | x8 | x8 | A8 |] %56
w: |||||||||||||||||||
w: |||||||||||||||||||
V:3
!pp! A,8 | E8 | A,4 G,4 | D8 | A,8 | E8 | B,8 | D8 :| A,2 C2 B,2 A,2 | G4 F2 E2 | B,4 A,2 G,2 | %11
w: |||||||||||
 F4 E2 A,2 | A,8 | E4 D2 C2 | B,8 | D8 |:!mf! C2 E2 D2 C2 | G2 B2 A2 G2 | D2 F2 G2 A2 | F4 E2 A,2 | %20
w: |||||Pa- da- da- dum||||
 C2 E2 D2 C2 | E4 D2 E2 | B,4 A,2 B,2 | F4 E2 A,2 :| B4 A2 E2 | G4 F2 G2 | G4 A2 D2 | F4 E2 A,2 | %28
w: ||||||||
 A4 B2 E2 | C4 G2 F2 | B,4 A,2 B,2 | F4 E2 A,2 | C4 A,4 | F4 E4 | B,8 | F8 |"_dim." C8 | E8 | B,8 | %39
w: |||||||||||
 F8 |!p! C8 | E8 | B,8 | F8 | C8 | E8 | B,8 | F8 | A4 G2 A2 | G4 F2 E2 | D4 F2 [DG]2 | D8 | %52
w: |||||||||||||
 E4 F2 E2 | D8 | D8 | D8 |] %56
w: ||||
V:4
 x8 | x8 | x8 | x8 | x8 | x8 | x8 | x8 :| x8 | x8 | x8 | x8 | x8 | x8 | x8 | x8 |: x8 | x8 | x8 | %19
 x8 | x8 | x8 | x8 | x8 :| C8 | E8 | D8 | D8 | E8 | E8 | G8 | A8 | x8 | G8 | x8 | x8 | x8 | B8 | %38
 x8 | x8 | x8 | G8 | x8 | D8 | x8 | B8 | x8 | x8 | x8 | B8 | x8 | A4 G2 A2 | A8 | G4 A2 F2 | %54
 G4 A2 G2 | F8 |] %56
V:5
 E8 | B8 | D8 | A8 | E8 | G8 | F4 G4 | A8 :| E4 E2 F2 | B4 B4 | G4 A2 B2 | A4 A4 | E2 E2 F2 G2 | %13
w: |||||||||||||
w: |||||||||||||
 G2 G2 G2 G2 | D4 A2 D2 | A8 |: EEEE EEFF | BBBB BBBB | DDDD FFGG | AAAA AAAA | EEEE FFGG | %21
w: |||(Dum)- * * * * * * *|||||
w: ||||||||
 GGGG GGGG | GGFF FFGG | AAAA GGFF :| A4 F2 E2 | B4 A2 B2 | DDDD DDDD | AAAA AAAA | EEEE FFEE | %29
w: ||||||||
w: ||||||||
 GGGG GGGG | DDDD FFDD | AAAA AAA!mp!A | E4 F4 | B8 | D8 | A8 | E8 | G8 | D8 | A8 | A8 | E8 | G8 | %43
w: |||(Ah) *|||||||||||
w: |||(Ah) *|||||||||||
 D8 | A8 | C8 | G8 | D8 | z8 | z8 | z8 | z8 | z8 | z8 | z8 | z8 |] %56
w: |||||||||||||
w: |||||||||||||
V:6
 x8 | x8 | x8 | x8 | x8 | x8 | A4 z4 | x8 :| x8 | x8 | x8 | x8 | x8 | x8 | x8 | x8 |: x8 | x8 | %18
 x8 | x8 | x8 | x8 | x8 | x8 :| E4 B2 A2 | x8 | x8 | D8 | x8 | C8 | x8 | x8 | x8 | x8 | x8 | x8 | %36
 x8 | x8 | x8 | x8 | x8 | x8 | x8 | x8 | x8 | x8 | x8 | x8 | x8 | x8 | x8 | x8 | x8 | x8 | x8 | %55
 x8 |] %56
V:7
 A,,8 | E,8 | G,,8 | D,8 | A,,8 | C,8 | G,,8 | D,8 :| A,,4 A,,4 | E,4 E,4 | G,,4 G,,4 | D,4 D,4 | %12
w: ||||||||Dum dum|dum dum|||
 A,,2 A,,2 A,,2 A,,2 | C,2 C,2 C,2 C,2 | G,,2 G,,2 G,,2 G,,2 | D,8 |: A,,A,,A,,A,, A,,A,,A,,A,, | %17
w: ||||(Dum) * * * * * * *|
 E,E,E,E, E,E,E,E, | G,,G,,G,,G,, G,,G,,G,,G,, | D,D,D,D, D,D,D,D, | A,,A,,A,,A,, A,,A,,A,,A,, | %21
w: ||||
 C,C,C,C, C,C,C,C, | G,,G,,G,,G,, G,,G,,G,,G,, | D,D,D,D, D,D,D,D, :| A,,A,,A,,A,, A,,A,,A,,A,, | %25
w: ||||
 E,,E,,B,,B,, B,,B,,E,,E,, | G,,G,,G,,G,, G,,G,,G,,G,, | D,D,D,D, D,D,D,D, | %28
w: |||
 A,,A,,A,,A,, A,,A,,A,,A,, | C,C,C,C, C,C,C,C, | G,,G,,G,,G,, G,,G,,G,,G,, | D,D,D,D, D,D,D,D, | %32
w: ||||
 A,,8 | E,,8 | G,,8 | D,8 | A,,8 | C,8 | G,,8 | D,8 | z8 | z8 | z8 | z8 | z8 | z8 | z8 | z8 | z8 | %49
w: (Ah)|||||||||||||||||
 z8 | z8 | z8 | z8 | z8 | z8 | z8 |] %56
w: |||||||

